X:1
T:All my little Robots
L:1/4
M:4/4
I:linebreak $
K:C
V:1 treble nm="Piano" snm="Pno."
V:1
 B ^c ^d e | ^f2 f2 | ^g g g g | ^f4 | ^g g g g | ^f4 | e e e e | ^d d d2 | ^f f f f | B4 |] %10
w: I'm a litt- ~el|Ro- bot.|Sin- ging like a|star.|Sin- ging like a|star.|I sing like a|Hack- Street- Boy|give me a gee-|tahr.|
